src/icons/globe-small.svg

<svg viewBox="0 0 24 24" fill="currentColor" xmlns="http://www.w3.org/2000/svg">
<path fill-rule="evenodd" clip-rule="evenodd" d="M12 2C6.47715 2 2 6.47715 2 12C2 17.5228 6.47715 22 12 22C17.5228 22 22 17.5228 22 12C22 6.47715 17.5228 2 12 2ZM8.14255 4.20915C5.32236 5.60819 3.37003 8.49343 3.30984 11.8406C3.96861 11.9404 4.59539 12.1157 4.63655 12.4582C4.65044 12.5704 4.65925 12.69 4.66784 12.8064C4.66952 12.8292 4.6712 12.8519 4.6729 12.8744L4.67296 12.8754C4.71136 13.4318 4.75104 14.0067 5.20353 14.2064C5.2495 14.2275 5.29937 14.2389 5.34995 14.2397C5.53998 14.2397 5.67809 14.069 5.82658 13.8619L5.84424 13.838C5.97508 13.6559 6.09865 13.4842 6.25961 13.4842C6.31785 13.4863 6.37406 13.5062 6.42056 13.5415C6.61654 13.6617 6.82176 13.7661 7.03427 13.8536L7.048 13.8598C7.59079 14.1038 8.19938 14.3774 8.19938 14.7901C8.19327 15.0147 8.1749 15.2388 8.14434 15.4613C8.09034 15.9202 8.0405 16.3531 8.19938 16.4624C8.67464 16.9005 9.08327 17.406 9.41225 17.9629C9.43 18.0796 9.45815 18.1945 9.49637 18.3063C9.61978 18.6222 9.67328 18.9613 9.65317 19.3C9.52869 19.6252 9.36796 19.9345 9.17453 20.222C10.0604 20.5264 11.0109 20.6916 12 20.6916C16.8002 20.6916 20.6916 16.8002 20.6916 12C20.6916 11.495 20.6485 11.0001 20.5659 10.5187C20.4129 10.7734 20.1635 11.0284 19.8966 11.3014L19.8858 11.3125C19.2627 11.9421 18.5659 12.6559 18.8089 13.6445C18.8228 13.6912 18.8267 13.7404 18.8204 13.7888C18.8142 13.8372 18.7979 13.8837 18.7726 13.9254C18.622 14.1679 18.1495 14.273 17.6428 14.3843C17.0949 14.4314 16.5773 14.6561 16.1682 15.0243C16.0585 15.1698 15.9142 15.2854 15.7484 15.3605C15.5825 15.4355 15.4006 15.4677 15.2191 15.454C14.7713 15.4352 14.3317 15.327 13.9263 15.1356C13.8639 15.111 13.7969 15.1003 13.73 15.1044C13.647 15.1044 13.5514 15.1134 13.4491 15.123C13.4413 15.1237 13.4336 15.1245 13.4258 15.1252H13.4081L13.4018 15.1258C13.2766 15.137 13.1643 15.1471 13.055 15.1471C12.9706 15.1577 12.8849 15.1502 12.8037 15.1251C12.7224 15.1 12.6474 15.0578 12.5836 15.0014C12.5433 14.948 12.5151 14.8865 12.5009 14.8211C12.4868 14.7556 12.487 14.6879 12.5016 14.6226C12.5846 13.9402 13.0517 13.7653 13.6434 13.5437C13.6566 13.5387 13.6704 13.5335 13.6838 13.5285C13.8313 13.4729 13.9839 13.4154 14.1391 13.3448C14.7799 13.0565 15.6916 12.2001 15.6615 11.8078C15.6585 11.768 15.6422 11.7303 15.6153 11.7009C15.5884 11.6715 15.5523 11.6519 15.513 11.6455C14.7158 11.3947 13.9842 10.9696 13.3709 10.401C12.7576 9.83232 12.2781 9.13429 11.9668 8.35729C11.9159 8.34688 11.8837 8.14917 11.8442 7.89839C11.758 7.35417 11.6262 6.53315 11.161 6.49777C11.1294 6.49777 11.0981 6.49597 11.0667 6.49415C11.035 6.49232 11.0032 6.49049 10.9709 6.49049C10.7902 6.49348 10.6098 6.50808 10.4309 6.53419C10.2375 6.56103 10.0426 6.57563 9.84735 6.5779C9.59361 6.57653 9.34067 6.54933 9.09242 6.49673C8.29387 6.3344 8.26168 5.88279 8.20561 4.98165C8.19127 4.75485 8.1739 4.49768 8.14255 4.20915Z" fill="white"/>
</svg>

<svg viewBox="0 0 24 24" fill="currentColor" xmlns="http://www.w3.org/2000/svg"><path fill-rule="evenodd" clip-rule="evenodd" d="M12 2C6.477 2 2 6.477 2 12s4.477 10 10 10 10-4.477 10-10S17.523 2 12 2zM8.143 4.21a8.692 8.692 0 0 0-4.833 7.63c.659.1 1.285.276 1.327.618.013.112.022.232.03.348l.006.068v.001c.038.557.078 1.132.53 1.331a.365.365 0 0 0 .147.034c.19 0 .328-.171.477-.378l.017-.024c.131-.182.255-.354.416-.354a.283.283 0 0 1 .16.057c.197.12.402.225.614.313l.014.006c.543.244 1.151.517 1.151.93a6.165 6.165 0 0 1-.055.671c-.054.46-.104.892.055 1.001a6.62 6.62 0 0 1 1.213 1.5c.018.118.046.233.084.344.124.316.177.655.157.994a4.593 4.593 0 0 1-.478.922 8.692 8.692 0 0 0 11.391-9.703c-.153.254-.402.51-.67.782l-.01.011c-.623.63-1.32 1.344-1.077 2.333a.348.348 0 0 1-.036.28c-.151.243-.623.348-1.13.46a2.528 2.528 0 0 0-1.475.64 1.088 1.088 0 0 1-.949.429 3.358 3.358 0 0 1-1.293-.318.459.459 0 0 0-.196-.032c-.083 0-.179.01-.28.019l-.024.002h-.024c-.125.012-.238.022-.347.022a.599.599 0 0 1-.471-.146.462.462 0 0 1-.082-.378c.083-.683.55-.858 1.141-1.08l.04-.014c.148-.056.3-.114.456-.184.64-.289 1.553-1.145 1.523-1.537a.178.178 0 0 0-.149-.162 5.64 5.64 0 0 1-3.546-3.289c-.051-.01-.083-.208-.123-.459-.086-.544-.218-1.365-.683-1.4-.032 0-.063-.002-.094-.004a1.655 1.655 0 0 0-.096-.004c-.18.003-.361.018-.54.044a4.637 4.637 0 0 1-.584.044 3.74 3.74 0 0 1-.755-.081c-.798-.163-.83-.614-.886-1.515a16.723 16.723 0 0 0-.063-.773z" fill="#fff"/></svg>
